X:1
T:Fiamme amorose
T:Fiamme amorose
T:Giovanni Pietro Biandra
T:Source : Madrigaletti a 1, 2 e 3 voci. Libro primo---Venezia---B.Magni (Gardano)---1626. Editor : André Vierendeels (09/03/15).
T:Notes : Original clefs : C1, F4, F4 Editorial accidentals above the staff Figures in BC are notated in original print
C:Giovanni Pietro Biandra
%%score [ 1 2 ] 3
L:1/8
Q:1/4=80
M:4/4
K:C
V:1 treble nm="Canto" snm="C"
V:2 bass nm="Basso" snm="B"
V:3 bass nm="BC" snm="BC"
V:1
 EF/G/ A/B/c/d/ e2 ed | cABc d4- | d2 e2 e2 d2 | e4 z2 E2 | ^G4 A4 | B2 e2 c3 d | B4 z ccc | %7
w: Fiam- * * * * * * * me'a- mo-|ro- se che dal pet-|* to'u- sci- *|te del|mio Gie-|su, del mio Gie-|su hor re- du-|
 e2 d2 c4 | B2 d4 cB | A/B/A/B/ c/d/c/d/ e4- | e2 c2 B4 | A8 | z8 | z GGG G2 D2 | EE e4 dc | %15
w: cet' un po-|co que- sto mio|cor _ _ _ _ _ _ _ _|_ in fo-|co,||hor re- du- cet' un|po- co que- sto mio|
 Bc dc B4 | A8 | z8 | z8 | z8 | z2 D2 ^F4 | z GFG EE e2- | e2 dc Bc d2- | d2 ^c2 d4 | z4 z2 G2 | %25
w: cor _ in _ fo-|co,||||ac- cio|non sien ar- di- te piu|_ d'ap- pres- sar- si'ad- es-|* * so|di|
 cBAG A2 AA | dcBA B4 | A8 | z4 GF G2 | E2 E2 FE F2 | D2 D2 z2 AB | c2 c2 B4 | A2 e2 ^c2 c2 | %33
w: vi- ve Fiam- m'im- pres- so, di|vi- ve Fiam- m'im- pres-|so,|mos- che'im- por-|tu- ne, mos- che'im- por-|tu- ne di pen-|sier fal- la-|ci ma sien e-|
 d2 d2 BABG | c2 c2 AG A2 | ^F2 F2 GF G2 | E2 E2 z2 Ac | d2 d4 ^c2 | d4 z2 d2 | B2 B2 c2 c2 | %40
w: stin- te dal- l'ar- den- te|fa- ci, mos- che'im- por-|tu- ne, mos- che'im- por-|tu- ne di pen-|sier fal- la-|ci, ma|sien' es- stin- te|
 AGAF G3 F | E4 D2 d2 | B2 B2 c2 c2 | AGAB cG AB | cB dc B4 | A8 |] %46
w: dal- l'ar- den- te fa- *|* ci, ma|sien e- stin- te|dal- l'ar- den- ti fa- * * *||ci.|
V:2
 z4 A,,B,,/C,/ D,/E,/F,/G,/ | A,2 A,G, F,D,E,F, | G,3 F, F,4 | E,8 | z4 z2 E,2 | ^G,4 A,4 | %6
w: Fiam- * * * * * *|* me'a- mo- ro- se che dal|pet- to'u- sci-|te|del|mio Gie|
 E,4 z C,C,C, | C,2 G,2 A,4 | G,8 | z8 | z8 | z F,F,F, F,2 C,2 | D,4 C,2 C2- | C2 B,A, G,2 F,2 | %14
w: su hor re- du-|cet' un po-|co,|||hor re- du- cet' un|po- co que-|* sto mio cor in|
 E,/F,/E,/D,/ C,/B,,/A,,/B,,/ C,/D,/E,/C,/ D,/E,/F,/D,/ | E,/F,/G,/E,/ F,/G,/ A,2 ^G,/^F,/ G,2 | %16
w: fo- * * * * * * * * * * * * * * *||
 A,4 z2 D,2 | ^F,4 z G,F,G, | E,E, A,4 G,F, | E,F, G,4 ^F,2 | G,4 z D,C,D, | B,,2 B,,2 z2 C,2- | %22
w: co, ac-|cio non sien ar-|di- te piu d'ap- pres-|sar- si'ad- es- *|so non- sien ar-|di- te piu|
 C,2 B,,A,, G,,A,, _B,,2 | A,,4 z2 D,2 | G,F,E,D, E,2 E,E, | A,G,F,E, F,E, D,E, | F,G, A,4 ^G,2 | %27
w: _ d'ap- pres- sar- si'ad- es-|so di|vi- ve Fiam- m'im- pres- so, di|vi- ve Fiam- m'im- pres- * * *||
 A,8 | D,C, D,2 B,,2 B,,2 | C,B,, C,2 A,,2 A,,2 | z2 F,G, A,4 | A,2 A,4 ^G,2 | A,4 z2 A,2 | %33
w: so,|mos- che'im- por- tu- ne,|mos- che'im- por- tu- ne|di pen- sier|fal- la- *|ci ma|
 ^F,2 F,2 G,2 G,2 | E,D,E,C, F,2 F,2 | z2 D,2 B,,2 B,,2 | C,2 C,2 A,,G,,A,,F,, | _B,,2 B,,2 z4 | %38
w: sien e- sti- ne|dal- l'ar- di- te fa- ci,|ma sien e-|sti- ne dal- l'ar- den- ti|fa- ci,|
 D,C, D,2 B,,2 B,,2 | E,D, E,2 C,2 C,2 | D,E,F,F, C,2 G,,2 | z2 A,2 ^F,2 F,2 | G,2 G,2 E,D,E,C, | %43
w: mos- che'im- por- tu- ne|mos- 'im- por- tu- ne|di pen- sier fa- la- ci,|ma sien e-|stin- te dal- l'ar- di- te|
 F,E, F,G, A,E, F,G, | A,6 ^G,2 | A,8 |] %46
w: fa- * * * * * * *||ci.|
V:3
 A,,8 | A,,4 D,4 | B,,2 C,2 D,4 | A,,8 | E,4 A,,4 | E,4 A,,4 | E,4 C,4- | C,2 G,2 A,4 | %8
 G,4 B,,2 C,2 | D,2 C,B,, A,,4 |"^3     4              3" E,8 | F,4 F,2 C,2 | D,4 C,4 | %13
 C2 B,A, G,2 F,2 | E,2 C,4 D,2 | E,2 D,2 E,4 | A,,4 D,4 | D,2 C,2 B,,4 | C,4 A,,2 B,,2 | %19
 C,2 B,,2 A,,4 | G,,4 D,4 | G,,4 C,4- | C,2 B,,A,, G,,A,, _B,,2 | A,,4 D,4 | B,,4 C,4 | A,,4 D,4- | %26
"^4   3" D,2 F,2 E,4 | A,,8 | D,4 G,,4 | C,4 A,,4 |"^6" _B,,4 F,,4 |"^b" A,,4 E,4 | A,,8 | %33
 D,4 G,,4 | A,,4 F,,4 | D,4 G,,4 | C,4 F,,4 | _B,,4 A,,4 | D,4 B,,4 | E,4 C,4 | D,2 F,2 C,2 G,,2 | %41
 A,,4 D,4 | G,,4 C,4 | F,,4 C,4 |"^4   3" A,,2 D,2 E,4 | A,,8 |] %46

